resources/icons/16px/drag-handle-vertical.svg

<svg xmlns="http://www.w3.org/2000/svg" viewBox="0 0 16 16">
  <path d="M6 9c-.55 0-1 .45-1 1s.45 1 1 1 1-.45 1-1-.45-1-1-1m4-6c.55 0 1-.45 1-1s-.45-1-1-1-1 .45-1 1 .45 1 1 1M6 13c-.55 0-1 .45-1 1s.45 1 1 1 1-.45 1-1-.45-1-1-1m0-8c-.55 0-1 .45-1 1s.45 1 1 1 1-.45 1-1-.45-1-1-1m0-4c-.55 0-1 .45-1 1s.45 1 1 1 1-.45 1-1-.45-1-1-1m4 8c-.55 0-1 .45-1 1s.45 1 1 1 1-.45 1-1-.45-1-1-1m0-4c-.55 0-1 .45-1 1s.45 1 1 1 1-.45 1-1-.45-1-1-1m0 8c-.55 0-1 .45-1 1s.45 1 1 1 1-.45 1-1-.45-1-1-1"/>
</svg>

<?xml version="1.0" encoding="utf-8"?>
<!-- Generator: Adobe Illustrator 18.0.0, SVG Export Plug-In . SVG Version: 6.00 Build 0)  -->
<svg version="1.1" id="Layer_1" xmlns="http://www.w3.org/2000/svg" xmlns:xlink="http://www.w3.org/1999/xlink" x="0px" y="0px"
	 viewBox="0 0 16 16" enable-background="new 0 0 16 16" xml:space="preserve">
<g id="drag_handle_vertical_4_">
	<g>
		<path fill-rule="evenodd" clip-rule="evenodd" d="M6,9c-0.55,0-1,0.45-1,1c0,0.55,0.45,1,1,1s1-0.45,1-1C7,9.45,6.55,9,6,9z M10,3
			c0.55,0,1-0.45,1-1c0-0.55-0.45-1-1-1S9,1.45,9,2C9,2.55,9.45,3,10,3z M6,13c-0.55,0-1,0.45-1,1c0,0.55,0.45,1,1,1s1-0.45,1-1
			C7,13.45,6.55,13,6,13z M6,5C5.45,5,5,5.45,5,6c0,0.55,0.45,1,1,1s1-0.45,1-1C7,5.45,6.55,5,6,5z M6,1C5.45,1,5,1.45,5,2
			c0,0.55,0.45,1,1,1s1-0.45,1-1C7,1.45,6.55,1,6,1z M10,9c-0.55,0-1,0.45-1,1c0,0.55,0.45,1,1,1s1-0.45,1-1C11,9.45,10.55,9,10,9z
			 M10,5C9.45,5,9,5.45,9,6c0,0.55,0.45,1,1,1s1-0.45,1-1C11,5.45,10.55,5,10,5z M10,13c-0.55,0-1,0.45-1,1c0,0.55,0.45,1,1,1
			s1-0.45,1-1C11,13.45,10.55,13,10,13z"/>
	</g>
</g>
</svg>
